X: 13
T: Maggie Brown's Favorite $1(J-27)
I: Maggie Brown's Favorite	J-27	G	jig
M: 6/8
R: jig
K: G
"G"dBG GAB| "C"E2E E2c| "D"AFD DEF| "G"G2G G2g|
"G"dBG Bcd| "C"E2E E2c| "D"AFD DEF|1 "G"GBA G3:|2"G"GBA G2g/a/|]
"G"bgb "D"afd| "C"efg gfe| "G"dBg dBG| "D"AFD D ga|
"G"bgb "D"afd| "Em"efg "D"gfe| faf "A"ge^c| "D"d3 "(G7)"de=f|
"C"ece "G"dBd| "C"cac "G"BgB| "Am"Ace "G"dBG| "D"FAF DEF|
"G"GAB "Am"EFG| ABc "D"def| "G"gdB "D"cAF| "G"G3 G2 g|]

#include "RightHeader.h"
% ---------- set 15 ----------
% Kesh Jig (G) / Hills of Glenurchie (Em) / Humors of Kesh (G)
%%text Set 15
%%vskip -1cm
%%scale .6
